X:1
T:English Suite VI Sarabande
T:BWV 811
T:J. S. Bach
%%score { ( 1 2 3 ) | ( 4 5 ) }
L:1/8
M:3/2
K:F
V:1 treble nm="Harp"
V:2 treble 
V:3 treble 
V:4 bass 
V:5 bass 
V:1
 f4 e6 f2 | %1
 g2 a/4g/4f/4g/4a g/4^f/4g/4f/4g/4f/4g/4f/4 g/4f/4g/4f/4g/4f/4g/4f/4 g/4f/4g/4f/4g/4f/4g/4f/4 f2 | %2
 g4 e4 d^c d2 | ^c6 =B2 A4 | c4 =B6 ^c2 | %5
 d2 e2 d/4^c/4d/4c/4d/4c/4d/4c/4 d/4c/4d/4c/4d/4c/4d/4c/4 d/4c/4d/4c/4d/4c/4d/4c/4 d2 | %6
 efef g/4f/4g/4f/4g/4f/4g/4f/4 g/4f/4g/4f/4g/4f/4g/4f/4 g/4f/4g/4f/4g/4f/4g/4f/4 e2 | e12 | %8
 f4 e6 f2 | %9
 g2 a/4g/4f/4g/4a g/4^f/4g/4f/4g/4f/4g/4f/4 g/4f/4g/4f/4g/4f/4g/4f/4 g/4f/4g/4f/4g/4f/4g/4f/4 f2 | %10
 g4 e4 d^c d2 | ^c6 =B2 A4 | c4 =B6 ^c2 | %13
 d2 e2 d/4^c/4d/4c/4d/4c/4d/4c/4 d/4c/4d/4c/4d/4c/4d/4c/4 d/4c/4d/4c/4d/4c/4d/4c/4 d2 | %14
 efef g/4f/4g/4f/4g/4f/4g/4f/4 g/4f/4g/4f/4g/4f/4g/4f/4 g/4f/4g/4f/4g/4f/4g/4f/4 e2 | e12 | %16
 e4 e8- | e4 _e8 | d4 e6 f2 | e6 d2 c4 | f4 g6 a2 | a2 g2 g2 a2 ab e2 | %22
 g2 d2 d/4e/4f/4e/4f/4e/4f/4e/4 f/4e/4f/4e/4f/4e/4f/4e/4 f/4e/4f/4e/4f/4e/4f/4e/4 f2 | f12 | %24
 a4 g2 ^f2 e2 d2 | b2 g2 e6 f2 | g2 e2 ^c6 d2 | e2 ^c2 A8- | A2 =B2 c2 A2 B2 ^c2 | %29
 d2 =B2 ^c2 d2 e2 c2 | %30
 d2- d/e/d/4^c/4d/4e/4 f/4e/4f/4e/4f/4e/4f/4e/4 f/4e/4f/4e/4f/4e/4f/4e/4 f/4e/4f/4e/4f/4e/4f/4e/4 d2 | %31
 d12 | e4 e8- | e4 _e8 | d4 e6 f2 | e6 d2 c4 | f4 g6 a2 | a2 g2 g2 a2 ab e2 | %38
 g2 d2 d/4e/4f/4e/4f/4e/4f/4e/4 f/4e/4f/4e/4f/4e/4f/4e/4 f/4e/4f/4e/4f/4e/4f/4e/4 f2 | f12 | %40
 a4 g2 ^f2 e2 d2 | b2 g2 e6 f2 | g2 e2 ^c6 d2 | e2 ^c2 A8- | A2 =B2 c2 A2 B2 ^c2 | %45
 d2 =B2 ^c2 d2 e2 c2 | %46
 d2- d/e/d/4^c/4d/4e/4 f/4e/4f/4e/4f/4e/4f/4e/4 f/4e/4f/4e/4f/4e/4f/4e/4 f/4e/4f/4e/4f/4e/4f/4e/4 d2 | %47
 d12 |] %48
V:2
 d4 B8 | A4 A8 | d4 B4 =B4 | A8 E4 | A4 G8 | ^G4 A4 =G4 | B4 A4 ^G4- | G2 ^G2 A8 | d4 B8 | A4 A8 | %10
 d4 B4 =B4 | A8 E4 | A4 G8 | ^G4 A4 =G4 | B4 A4 ^G4- | G2 ^G2 A8 | A4 B6 A2 | G4 F8- | F4 G4 A4 | %19
 G8 G4 | c12 | d4 c4 B4 | A4 G2 A2 B4- | B2 G2 A8 | d8 c4 | B6 A2 G4 | A4 A4 F4 | E12 | D8- D2 E2 | %29
 F2 D2 E2 F2 G2 E2 | F2 B2 A4 G4- | G2 E2 F8 | A4 B6 A2 | G4 F8- | F4 G4 A4 | G8 G4 | c12 | %37
 d4 c4 B4 | A4 G2 A2 B4- | B2 G2 A8 | d8 c4 | B6 A2 G4 | A4 A4 F4 | E12 | D8- D2 E2 | %45
 F2 D2 E2 F2 G2 E2 | F2 B2 A4 G4- | G2 E2 F8 |] %48
V:3
 A4 G8 | x12 | G4 G4 F4 | x12 | x12 | x12 | x12 | x12 | A4 G8 | x12 | G4 G4 F4 | x12 | x12 | x12 | %14
 x12 | x12 | x12 | x12 | x12 | x12 | x12 | x12 | x12 | x12 | x12 | x12 | x12 | x12 | x12 | x12 | %30
 x12 | x12 | x12 | x12 | x12 | x12 | x12 | x12 | x12 | x12 | x12 | x12 | x12 | x12 | x12 | x12 | %46
 x12 | x12 |] %48
V:4
 D4 D8 | E4 D8 | D4 G,4 ^G,4 | E4 D4 ^C4 | D4 D8 | E8 D4 | G,4 D4 =B,4- | B,2 =B,2 ^C8 | D4 D8 | %9
 E4 D8 | D4 G,4 ^G,4 | E4 D4 ^C4 | D4 D8 | E8 D4 | G,4 D4 =B,4- | B,2 =B,2 ^C8 | ^C4 C8- | %17
 C4 =C8- | C4 B,4 C4 | C4 D4 E4 | F12- | F8 G4 | C4 C4- C4- | C2 B,2 C8 | D12- | D12 | %26
 ^C4 E4 A,4- | A,6 B,2 A,2 G,2 | ^F,8 G,4 | ^G,4 =G,8 | A,2 D,2- D,2 =B,,2 ^C,4 | D,12 | ^C4 C8- | %33
 C4 =C8- | C4 B,4 C4 | C4 D4 E4 | F12- | F8 G4 | C4 C4- C4- | C2 B,2 C8 | D12- | D12 | %42
 ^C4 E4 A,4- | A,6 B,2 A,2 G,2 | ^F,8 G,4 | ^G,4 =G,8 | A,2 D,2- D,2 =B,,2 ^C,4 | D,12 |] %48
V:5
 D,4 z8 | ^C4 =C8 | B,4 z8 | A,8 G,4 | ^F,4 =F,8 | E,4 G,4 B,4 | ^C,4 D,8 | A,12 | D,4 z8 | %9
 ^C4 =C8 | B,4 z8 | A,8 G,4 | ^F,4 =F,8 | E,4 G,4 B,4 | ^C,4 D,8 | A,12 | A,4 G,6 A,2 | %17
 B,G, A,2 G,/4A,/4B,/4A,/4B,/4A,/4B,/4A,/4 B,/4A,/4B,/4A,/4B,/4A,/4B,/4A,/4 B,/4A,/4B,/4A,/4B,/4A,/4B,/4A,/4 A,2 | %18
 B,2 A,2 G,4 F,4 | C4- C4 B,4 | A,4 G,4 F,4 | B,4 A,4 G,4 | A,2 B,2 C4 C,4 | F,12 | ^F,4 E,4 F,4 | %25
 G,4 A,4 B,4 | A,4 G,2 F,2 E,2 D,2 | ^C,12 | C,8 =B,,4- | B,,4 _B,,8 | A,,2 G,,2 A,,8 | D,,12 | %32
 A,4 G,6 A,2 | %33
 B,G, A,2 G,/4A,/4B,/4A,/4B,/4A,/4B,/4A,/4 B,/4A,/4B,/4A,/4B,/4A,/4B,/4A,/4 B,/4A,/4B,/4A,/4B,/4A,/4B,/4A,/4 A,2 | %34
 B,2 A,2 G,4 F,4 | C4- C4 B,4 | A,4 G,4 F,4 | B,4 A,4 G,4 | A,2 B,2 C4 C,4 | F,12 | ^F,4 E,4 F,4 | %41
 G,4 A,4 B,4 | A,4 G,2 F,2 E,2 D,2 | ^C,12 | C,8 =B,,4- | B,,4 _B,,8 | A,,2 G,,2 A,,8 | D,,12 |] %48

